X:1
T:Saint-Cloud, 11.11.11
T:Saint-Cloud, 11.11.11
T:Christopher Columbus Cline, 1883
T:Public Domain Courtesy of the Cyber Hymnal™
C:Christopher Columbus Cline, 1883
Z:Public Domain
Z:Courtesy of the Cyber Hymnal™
%%score ( 1 2 ) ( 3 4 )
L:1/8
Q:1/4=100
M:6/8
K:D
V:1 treble 
V:2 treble 
V:3 bass 
V:4 bass 
V:1
 [FA]2 [FA] ([DF][EG])[FA] | [GB] [GB]3- [GB]2 | [Ec]2 [Ec] (cB)[Gc] | [Fd]6 | %4
 [GB]2 [GB] ([Bd][Ac])[GB] | [GB] [FA]3- [FA]2 | [FA]2 [FA] ([EG][DF])[CE] | [DF]6 | %8
 [GB]2 [GB] [Bd][Ac][GB] | [GB] [FA]3- [FA]2 | A3 A3 | [FA]6 |] %12
V:2
 x6 | x6 | x3 G2 x | x6 | x6 | x6 | x6 | x6 | x6 | x6 | E2 E (EF)G | x6 |] %12
V:3
 [D,D]2 [D,D] [D,A,]2 [D,D] | [G,D] [G,D]3- [G,D]2 | A,2 A, [A,,A,]2 [A,,A,] | [D,A,]6 | %4
 G,2 G, G,2 [G,B,] | [D,D] [D,D]3- [D,D]2 | [A,D]2 [A,D] [A,,A,]2 [A,,A,] | [D,A,]6 | %8
 G,2 G, G,2 [G,B,] | [D,D] [D,D]3- [D,D]2 | [A,C]2 [A,C] (CD)[A,,E] | [D,D]6 |] %12
V:4
 x6 | x6 | A,2 A, x3 | x6 | G,2 G, G,2 x | x6 | x6 | x6 | G,2 G, G,2 x | x6 | x3 A,,2 x | x6 |] %12

